Suru++-Ubuntu/apps/scalable/gpaint.svg

<svg width="256" height="256" version="1.1" viewBox="0 0 67.73 67.73" xmlns="http://www.w3.org/2000/svg" xmlns:xlink="http://www.w3.org/1999/xlink">
 <defs>
  <filter id="filter1001" x="-.06" y="-.06" width="1.12" height="1.12" style="color-interpolation-filters:sRGB">
   <feGaussianBlur stdDeviation="1.2"/>
  </filter>
  <linearGradient id="linearGradient1091" x1="128" x2="185.544" y1="100" y2="133.849" gradientTransform="translate(-26.432006,-38.431995)" gradientUnits="userSpaceOnUse">
   <stop style="stop-color:#000000;stop-opacity:0" offset="0"/>
   <stop style="stop-color:#000000" offset="1"/>
  </linearGradient>
  <linearGradient id="linearGradient1121" x1="128" x2="264" y1="100" y2="180" gradientTransform="translate(-26.432006,-40.431995)" gradientUnits="userSpaceOnUse">
   <stop style="stop-color:#000000;stop-opacity:0" offset="0"/>
   <stop style="stop-color:#000000" offset=".423"/>
   <stop style="stop-color:#000000;stop-opacity:0" offset="1"/>
  </linearGradient>
  <linearGradient id="linearGradient1108" x1="296" x2="296" y1="-212" y2="236" gradientUnits="userSpaceOnUse">
   <stop style="stop-color:#ffffff" offset="0"/>
   <stop style="stop-color:#ffffff;stop-opacity:.09803922" offset=".125"/>
   <stop style="stop-color:#000000;stop-opacity:.09803922" offset=".925"/>
   <stop style="stop-color:#000000;stop-opacity:.49803922" offset="1"/>
  </linearGradient>
  <clipPath id="clipPath1082-3-3675">
   <path d="M 361.9375,-212 C 507.2348,-212 528,-191.28677 528,-46.125 V 70.125 C 528,215.28618 507.2348,236 361.9375,236 H 214.0625 C 68.7652,236 48,215.28618 48,70.125 V -46.125 C 48,-191.28677 68.7652,-212 214.0625,-212 Z" style="fill:#8c59d9"/>
  </clipPath>
  <clipPath id="clipPath1064-6">
   <path d="m115.03125 44c-72.64865 0-83.03125 10.356615-83.03125 82.9375v58.125c0 10.16582 0.217657 19.07051 0.767578 26.9375 3.376331 48.30069 19.790377 56 82.263672 56h73.9375c62.4733 0 78.88734-7.69931 82.26367-56 0.54992-7.86699 0.76758-16.77168 0.76758-26.9375v-58.125c0-72.580885-10.3826-82.9375-83.03125-82.9375z" style="fill:#a3dbf0"/>
  </clipPath>
  <filter id="filter956" x="-.02" y="-.03" width="1.046" height="1.05" style="color-interpolation-filters:sRGB">
   <feGaussianBlur stdDeviation="2.32"/>
  </filter>
  <filter id="filter4569" x="-.01" y="-.01" width="1.023" height="1.025" style="color-interpolation-filters:sRGB">
   <feGaussianBlur stdDeviation="1.16"/>
  </filter>
 </defs>
 <g transform="translate(0,-229.26666)">
  <g transform="matrix(.12974173 0 0 .12974173 3.8344818 227.85345)" style="enable-background:new">
   <path transform="matrix(2.0393079,0,0,2.0393079,-29.55473,37.126102)" d="m162.53675 3.5680001c72.64865 0 83.03125 10.356615 83.03125 82.937505v58.125005c0 72.58059-10.3826 82.9375-83.03125 82.9375h-73.937496c-72.648654 0-83.031254-10.35691-83.031254-82.9375v-58.125005c0-72.58089 10.3826-82.937505 83.031254-82.937505z" style="filter:url(#filter4569);opacity:.1"/>
   <path transform="matrix(2.0393079,0,0,2.0393079,-29.55473,10.892486)" d="m5.5683594 101.36914v56.125c0 9.07257 0.1620995 17.17296 0.5878906 24.40234 0.2128956 3.6147 0.4922654 7.01124 0.8496094 10.20313 0.3573439 3.19188 0.7931865 6.18021 1.3203125 8.97461s1.1449457 5.39611 1.8671871 7.81836c0.722242 2.42224 1.547543 4.66482 2.490235 6.74023 0.942691 2.07541 2.002931 3.98242 3.191406 5.73633s2.505252 3.35478 3.964844 4.8125c1.459591 1.45773 3.062317 2.77211 4.818359 3.95898 1.756042 1.18688 3.666314 2.24616 5.744141 3.1875 2.077826 0.94135 4.323102 1.7652 6.748047 2.48633 2.424944 0.72114 5.028775 1.33898 7.826171 1.86524 2.797397 0.52626 5.787241 0.96165 8.982422 1.31836 3.195182 0.3567 6.596543 0.63518 10.214844 0.84765 7.236602 0.42496 15.3447 0.58594 24.425781 0.58594h73.937501c9.08108 0 17.18918-0.16098 24.42578-0.58594 3.6183-0.21247 7.01771-0.49095 10.21289-0.84765 3.19518-0.35671 6.18503-0.7921 8.98242-1.31836 2.7974-0.52626 5.40318-1.1441 7.82813-1.86524 2.42494-0.72113 4.67022-1.54498 6.74805-2.48633 2.07782-0.94134 3.98809-2.00062 5.74414-3.1875 1.75604-1.18687 3.35681-2.50125 4.8164-3.95898 1.45959-1.45772 2.77832-3.05859 3.9668-4.8125 1.18847-1.75391 2.24676-3.66092 3.18945-5.73633s1.76995-4.31799 2.49219-6.74023c0.72224-2.42225 1.34006-5.02396 1.86719-7.81836 0.52712-2.7944 0.96297-5.78273 1.32031-8.97461 0.35734-3.19189 0.63671-6.58843 0.84961-10.20313 0.42579-7.22938 0.58789-15.32977 0.58789-24.40234v-56.125c0-72.58089-10.3826-82.937499-83.03125-82.937499h-73.937501c-72.648654 0-83.03125 10.356609-83.03125 82.937499z" style="filter:url(#filter956);opacity:.2"/>
   <path d="m151.12641 44.402363c-148.15297 0-169.32629 21.120327-169.32629 169.13511v118.53478c0 20.73123 0.44387 38.89064 1.56533 54.93385l31.0636 16.31447h424.17603l31.0636-16.31447c1.12145-16.04321 1.56533-34.20262 1.56533-54.93385v-118.53478c0-148.01478-21.17332-169.13511-169.32628-169.13511z" style="fill:#a3dbf0"/>
   <path d="m-16.63455 387.0061c6.8853799 98.49998 40.35867 114.20125 167.76096 114.20125h150.78132c127.40229 0 160.87557-15.70127 167.76095-114.20125h-437.90552z" style="fill:#8fbf3a"/>
   <g transform="matrix(2.0393079,0,0,2.0393079,-83.45773,-45.327183)" clip-path="url(#clipPath1064-6)" style="enable-background:new">
    <path transform="translate(26.432007,27.568014)" d="m64.25 239.84766c7.219454 0.42199 15.296849 0.58398 24.349609 0.58398h73.937501c9.08108 0 17.18918-0.16098 24.42578-0.58594 3.6183-0.21247 7.01771-0.49095 10.21289-0.84765 3.19518-0.35671 6.18503-0.7921 8.98242-1.31836 2.7974-0.52626 5.40318-1.1441 7.82813-1.86524 2.42494-0.72113 4.67022-1.54498 6.74805-2.48633 2.07782-0.94134 3.98809-2.00062 5.74414-3.1875 1.75604-1.18687 3.35681-2.50125 4.8164-3.95898 1.45959-1.45772 2.77832-3.05859 3.9668-4.8125 1.18847-1.75391 2.24676-3.66092 3.18945-5.73633s1.76995-4.31799 2.49219-6.74023c0.72224-2.42225 1.34006-5.02396 1.86719-7.81836 0.52712-2.7944 0.96297-5.78273 1.32031-8.97461 0.35734-3.19189 0.63671-6.58843 0.84961-10.20313 0.42579-7.22938 0.58789-15.32977 0.58789-24.40234v-58.124999c0-9.072612-0.1621-17.172938-0.58789-24.402344-0.2129-3.614703-0.49227-7.011234-0.84961-10.203125s-0.79319-6.178251-1.32031-8.972656c-0.52713-2.794405-1.14495-5.396115-1.86719-7.81836s-1.5495-4.664823-2.49219-6.740234-2.00098-3.984379-3.18945-5.738281c-1.18848-1.753903-2.50721-3.352827-3.9668-4.810547-1.45959-1.457721-3.06036-2.774073-4.8164-3.960938-1.75605-1.186864-3.66632-2.244212-5.74414-3.185547-2.07783-0.941334-4.32311-1.767151-6.74805-2.488281-2.42495-0.72113-5.03073-1.338982-7.82813-1.865234-2.79739-0.526253-5.78724-0.961659-8.98242-1.31836-3.19518-0.3567-6.59459-0.633229-10.21289-0.845703-1.77819-0.104419-4.11701-0.070384-6.00195-0.144531l-116.71094 222.97266z" style="fill:#ffffff;opacity:.1"/>
    <path transform="translate(26.432007,27.568014)" d="m180.98828 16.875c-5.79317-0.228346-11.59135-0.443359-18.45117-0.443359h-29.31641l-87.652341 168h48l87.419921-167.55664z" style="fill:#b6e2f3"/>
    <path transform="translate(26.432007,27.568014)" d="m239.21094 43.285156c-0.26586-0.663502-0.47264-1.420592-0.75977-2.052734-0.94269-2.075411-2.00098-3.984379-3.18945-5.738281-1.18848-1.753903-2.50721-3.352827-3.9668-4.810547-1.45959-1.457721-3.06036-2.774073-4.8164-3.960938-1.75605-1.186864-3.66632-2.244212-5.74414-3.185547-2.07783-0.941334-4.32311-1.767151-6.74805-2.488281-2.42495-0.72113-5.03073-1.338982-7.82813-1.865234-2.79739-0.526253-5.78724-0.961659-8.98242-1.31836-3.19518-0.3567-6.59459-0.633229-10.21289-0.845703-1.7701-0.103943-4.09874-0.070591-5.97461-0.144531l-87.419921 167.55664h72.000001l73.64258-141.14648z" style="fill:#ffda64"/>
    <path transform="translate(26.432007,27.568014)" d="m245.56836 123.09766v-23.728519c0-9.072612-0.1621-17.172938-0.58789-24.402344-0.2129-3.614703-0.49227-7.011234-0.84961-10.203125s-0.79319-6.178251-1.32031-8.972656c-0.52713-2.794405-1.14495-5.396115-1.86719-7.81836-0.50226-1.684461-1.12542-3.172632-1.73242-4.6875l-73.64258 141.14648h48l32-61.33398z" style="fill:#b6e2f3"/>
   </g>
   <path transform="matrix(1.0196539,0,0,1.0196539,-67.14327,260.56901)" d="M 361.9375,-212 C 507.2348,-212 528,-191.28677 528,-46.125 V 70.125 C 528,215.28618 507.2348,236 361.9375,236 H 214.0625 C 68.7652,236 48,215.28618 48,70.125 V -46.125 C 48,-191.28677 68.7652,-212 214.0625,-212 Z" clip-path="url(#clipPath1082-3-3675)" style="fill:none;opacity:.4;stroke-linecap:round;stroke-linejoin:round;stroke-width:8;stroke:url(#linearGradient1108)"/>
   <path transform="matrix(2.0393079,0,0,2.0393079,-29.55473,37.126102)" d="m181.56799 51.568005a24 24 0 0 0-24 24 24 24 0 0 0 24 24 24 24 0 0 0 24-24 24 24 0 0 0-24-24zm-88.365226 28.37109-47.63477 91.628915h120l-36-69-12.32227 23.61914z" style="fill:url(#linearGradient1121);filter:url(#filter1117);opacity:.1"/>
   <path transform="matrix(2.0393079,0,0,2.0393079,-29.55473,37.126102)" d="m93.202764 81.939095-47.63477 91.628915h120l-36-69-12.32227 23.61914z" style="fill:url(#linearGradient1091);filter:url(#filter1101);opacity:.3"/>
   <path d="m63.372438 387.0061 97.142532-186.85824 97.14253 186.85824z" style="fill:#f2f2f2"/>
   <path d="m161.25922 387.0061 73.41507-140.71224 73.41509 140.71224z" style="fill:#f9f9f9"/>
   <circle transform="matrix(2.0393079,0,0,2.0393079,-29.55473,37.126102)" cx="181.568" cy="77.568" r="24" style="filter:url(#filter1001);opacity:.1"/>
   <circle cx="340.718" cy="191.233" r="48.943" style="fill:#f9f9f9"/>
   <path d="m340.71831 142.28915a48.943389 48.943389 0 0 0-48.94339 48.94339 48.943389 48.943389 0 0 0 0.0438 0.85236 48.943389 48.943389 0 0 1 48.89955-47.75645 48.943389 48.943389 0 0 1 48.89958 48.09102 48.943389 48.943389 0 0 0 0.0439-1.18693 48.943389 48.943389 0 0 0-48.94339-48.94339zm-180.20391 57.85738-97.141962 186.85957h1.059483l96.082479-184.82026 49.03099 94.31403 25.1289-48.1667 72.35163 138.67293h1.06346l-73.41509-140.71224-25.1289 48.1667z" style="fill:#ffffff"/>
  </g>
 </g>
</svg>

<svg xmlns="http://www.w3.org/2000/svg" xmlns:xlink="http://www.w3.org/1999/xlink" width="256" height="256" version="1.1" viewBox="0 0 67.73 67.73">
 <defs>
  <filter style="color-interpolation-filters:sRGB" id="filter1001" width="1.12" height="1.12" x="-.06" y="-.06">
   <feGaussianBlur stdDeviation="1.2"/>
  </filter>
  <linearGradient id="linearGradient1091" x1="128" x2="185.544" y1="100" y2="133.849" gradientTransform="translate(-26.432006,-38.431995)" gradientUnits="userSpaceOnUse" xlink:href="#linearGradient1129"/>
  <linearGradient id="linearGradient1129">
   <stop style="stop-color:#000000;stop-opacity:0" offset="0"/>
   <stop offset="1" style="stop-color:#000000"/>
  </linearGradient>
  <linearGradient id="linearGradient1121" x1="128" x2="264" y1="100" y2="180" gradientTransform="translate(-26.432006,-40.431995)" gradientUnits="userSpaceOnUse" xlink:href="#linearGradient4463"/>
  <linearGradient id="linearGradient4463">
   <stop offset="0" style="stop-color:#000000;stop-opacity:0"/>
   <stop style="stop-color:#000000" offset=".423"/>
   <stop offset="1" style="stop-color:#000000;stop-opacity:0"/>
  </linearGradient>
  <linearGradient id="linearGradient1108" x1="296" x2="296" y1="-212" y2="236" gradientUnits="userSpaceOnUse" xlink:href="#linearGradient1013"/>
  <linearGradient id="linearGradient1013">
   <stop offset="0" style="stop-color:#ffffff"/>
   <stop style="stop-color:#ffffff;stop-opacity:0.09803922" offset=".125"/>
   <stop style="stop-color:#000000;stop-opacity:0.09803922" offset=".925"/>
   <stop offset="1" style="stop-color:#000000;stop-opacity:0.49803922"/>
  </linearGradient>
  <clipPath id="clipPath1082-3-3675" clipPathUnits="userSpaceOnUse">
   <path d="M 361.9375,-212 C 507.2348,-212 528,-191.28677 528,-46.125 V 70.125 C 528,215.28618 507.2348,236 361.9375,236 H 214.0625 C 68.7652,236 48,215.28618 48,70.125 V -46.125 C 48,-191.28677 68.7652,-212 214.0625,-212 Z" style="fill:#8c59d9"/>
  </clipPath>
  <clipPath id="clipPath1064-6" clipPathUnits="userSpaceOnUse">
   <path style="fill:#a3dbf0" d="M 115.03125,44 C 42.3826,44 32,54.356615 32,126.9375 v 58.125 c 0,10.16582 0.217657,19.07051 0.767578,26.9375 3.376331,48.30069 19.790377,56 82.263672,56 h 73.9375 c 62.4733,0 78.88734,-7.69931 82.26367,-56 C 271.78234,204.13301 272,195.22832 272,185.0625 v -58.125 C 272,54.356615 261.6174,44 188.96875,44 Z"/>
  </clipPath>
  <filter style="color-interpolation-filters:sRGB" id="filter956" width="1.046" height="1.05" x="-.02" y="-.03">
   <feGaussianBlur stdDeviation="2.32"/>
  </filter>
  <filter style="color-interpolation-filters:sRGB" id="filter4569" width="1.023" height="1.025" x="-.01" y="-.01">
   <feGaussianBlur stdDeviation="1.16"/>
  </filter>
 </defs>
 <g transform="translate(0,-229.26666)">
  <g style="enable-background:new" transform="matrix(0.12974173,0,0,0.12974173,3.8344818,227.85345)">
   <path d="m 162.53675,3.5680001 c 72.64865,0 83.03125,10.3566149 83.03125,82.9375049 v 58.125005 c 0,72.58059 -10.3826,82.9375 -83.03125,82.9375 H 88.599254 C 15.9506,227.56801 5.568,217.2111 5.568,144.63051 V 86.505505 c 0,-72.58089 10.3826,-82.9375049 83.031254,-82.9375049 z" transform="matrix(2.0393079,0,0,2.0393079,-29.55473,37.126102)" style="opacity:0.1;filter:url(#filter4569)"/>
   <path style="opacity:0.2;filter:url(#filter956)" d="M 5.5683594 101.36914 L 5.5683594 157.49414 C 5.5683594 166.56671 5.7304589 174.6671 6.15625 181.89648 C 6.3691456 185.51118 6.6485154 188.90772 7.0058594 192.09961 C 7.3632033 195.29149 7.7990459 198.27982 8.3261719 201.07422 C 8.8532979 203.86862 9.4711176 206.47033 10.193359 208.89258 C 10.915601 211.31482 11.740902 213.5574 12.683594 215.63281 C 13.626285 217.70822 14.686525 219.61523 15.875 221.36914 C 17.063475 223.12305 18.380252 224.72392 19.839844 226.18164 C 21.299435 227.63937 22.902161 228.95375 24.658203 230.14062 C 26.414245 231.3275 28.324517 232.38678 30.402344 233.32812 C 32.48017 234.26947 34.725446 235.09332 37.150391 235.81445 C 39.575335 236.53559 42.179166 237.15343 44.976562 237.67969 C 47.773959 238.20595 50.763803 238.64134 53.958984 238.99805 C 57.154166 239.35475 60.555527 239.63323 64.173828 239.8457 C 71.41043 240.27066 79.518528 240.43164 88.599609 240.43164 L 162.53711 240.43164 C 171.61819 240.43164 179.72629 240.27066 186.96289 239.8457 C 190.58119 239.63323 193.9806 239.35475 197.17578 238.99805 C 200.37096 238.64134 203.36081 238.20595 206.1582 237.67969 C 208.9556 237.15343 211.56138 236.53559 213.98633 235.81445 C 216.41127 235.09332 218.65655 234.26947 220.73438 233.32812 C 222.8122 232.38678 224.72247 231.3275 226.47852 230.14062 C 228.23456 228.95375 229.83533 227.63937 231.29492 226.18164 C 232.75451 224.72392 234.07324 223.12305 235.26172 221.36914 C 236.45019 219.61523 237.50848 217.70822 238.45117 215.63281 C 239.39386 213.5574 240.22112 211.31482 240.94336 208.89258 C 241.6656 206.47033 242.28342 203.86862 242.81055 201.07422 C 243.33767 198.27982 243.77352 195.29149 244.13086 192.09961 C 244.4882 188.90772 244.76757 185.51118 244.98047 181.89648 C 245.40626 174.6671 245.56836 166.56671 245.56836 157.49414 L 245.56836 101.36914 C 245.56836 28.78825 235.18576 18.431641 162.53711 18.431641 L 88.599609 18.431641 C 15.950955 18.431641 5.5683594 28.78825 5.5683594 101.36914 z" transform="matrix(2.0393079,0,0,2.0393079,-29.55473,10.892486)"/>
   <path style="fill:#a3dbf0" d="m 151.12641,44.402363 c -148.1529701,0 -169.32629,21.120327 -169.32629,169.135107 v 118.53478 c 0,20.73123 0.44387,38.89064 1.56533,54.93385 l 31.0636,16.31447 h 424.17603 l 31.0636,-16.31447 c 1.12145,-16.04321 1.56533,-34.20262 1.56533,-54.93385 V 213.53747 c 0,-148.01478 -21.17332,-169.135107 -169.32628,-169.135107 z"/>
   <path style="fill:#8fbf3a" d="m -16.63455,387.0061 c 6.8853799,98.49998 40.35867,114.20125 167.76096,114.20125 h 150.78132 c 127.40229,0 160.87557,-15.70127 167.76095,-114.20125 H 31.763165 Z"/>
   <g style="enable-background:new" clip-path="url(#clipPath1064-6)" transform="matrix(2.0393079,0,0,2.0393079,-83.45773,-45.327183)">
    <path style="opacity:0.1;fill:#ffffff" d="M 64.25 239.84766 C 71.469454 240.26965 79.546849 240.43164 88.599609 240.43164 L 162.53711 240.43164 C 171.61819 240.43164 179.72629 240.27066 186.96289 239.8457 C 190.58119 239.63323 193.9806 239.35475 197.17578 238.99805 C 200.37096 238.64134 203.36081 238.20595 206.1582 237.67969 C 208.9556 237.15343 211.56138 236.53559 213.98633 235.81445 C 216.41127 235.09332 218.65655 234.26947 220.73438 233.32812 C 222.8122 232.38678 224.72247 231.3275 226.47852 230.14062 C 228.23456 228.95375 229.83533 227.63937 231.29492 226.18164 C 232.75451 224.72392 234.07324 223.12305 235.26172 221.36914 C 236.45019 219.61523 237.50848 217.70822 238.45117 215.63281 C 239.39386 213.5574 240.22112 211.31482 240.94336 208.89258 C 241.6656 206.47033 242.28342 203.86862 242.81055 201.07422 C 243.33767 198.27982 243.77352 195.29149 244.13086 192.09961 C 244.4882 188.90772 244.76757 185.51118 244.98047 181.89648 C 245.40626 174.6671 245.56836 166.56671 245.56836 157.49414 L 245.56836 99.369141 C 245.56836 90.296529 245.40626 82.196203 244.98047 74.966797 C 244.76757 71.352094 244.4882 67.955563 244.13086 64.763672 C 243.77352 61.571781 243.33767 58.585421 242.81055 55.791016 C 242.28342 52.996611 241.6656 50.394901 240.94336 47.972656 C 240.22112 45.550411 239.39386 43.307833 238.45117 41.232422 C 237.50848 39.157011 236.45019 37.248043 235.26172 35.494141 C 234.07324 33.740238 232.75451 32.141314 231.29492 30.683594 C 229.83533 29.225873 228.23456 27.909521 226.47852 26.722656 C 224.72247 25.535792 222.8122 24.478444 220.73438 23.537109 C 218.65655 22.595775 216.41127 21.769958 213.98633 21.048828 C 211.56138 20.327698 208.9556 19.709846 206.1582 19.183594 C 203.36081 18.657341 200.37096 18.221935 197.17578 17.865234 C 193.9806 17.508534 190.58119 17.232005 186.96289 17.019531 C 185.1847 16.915112 182.84588 16.949147 180.96094 16.875 L 64.25 239.84766 z" transform="translate(26.432007,27.568014)"/>
    <path style="fill:#b6e2f3" d="M 180.98828 16.875 C 175.19511 16.646654 169.39693 16.431641 162.53711 16.431641 L 133.2207 16.431641 L 45.568359 184.43164 L 93.568359 184.43164 L 180.98828 16.875 z" transform="translate(26.432007,27.568014)"/>
    <path style="fill:#ffda64" d="M 239.21094 43.285156 C 238.94508 42.621654 238.7383 41.864564 238.45117 41.232422 C 237.50848 39.157011 236.45019 37.248043 235.26172 35.494141 C 234.07324 33.740238 232.75451 32.141314 231.29492 30.683594 C 229.83533 29.225873 228.23456 27.909521 226.47852 26.722656 C 224.72247 25.535792 222.8122 24.478444 220.73438 23.537109 C 218.65655 22.595775 216.41127 21.769958 213.98633 21.048828 C 211.56138 20.327698 208.9556 19.709846 206.1582 19.183594 C 203.36081 18.657341 200.37096 18.221935 197.17578 17.865234 C 193.9806 17.508534 190.58119 17.232005 186.96289 17.019531 C 185.19279 16.915588 182.86415 16.94894 180.98828 16.875 L 93.568359 184.43164 L 165.56836 184.43164 L 239.21094 43.285156 z" transform="translate(26.432007,27.568014)"/>
    <path style="fill:#b6e2f3" d="M 245.56836 123.09766 L 245.56836 99.369141 C 245.56836 90.296529 245.40626 82.196203 244.98047 74.966797 C 244.76757 71.352094 244.4882 67.955563 244.13086 64.763672 C 243.77352 61.571781 243.33767 58.585421 242.81055 55.791016 C 242.28342 52.996611 241.6656 50.394901 240.94336 47.972656 C 240.4411 46.288195 239.81794 44.800024 239.21094 43.285156 L 165.56836 184.43164 L 213.56836 184.43164 L 245.56836 123.09766 z" transform="translate(26.432007,27.568014)"/>
   </g>
   <path d="M 361.9375,-212 C 507.2348,-212 528,-191.28677 528,-46.125 V 70.125 C 528,215.28618 507.2348,236 361.9375,236 H 214.0625 C 68.7652,236 48,215.28618 48,70.125 V -46.125 C 48,-191.28677 68.7652,-212 214.0625,-212 Z" clip-path="url(#clipPath1082-3-3675)" transform="matrix(1.0196539,0,0,1.0196539,-67.14327,260.56901)" style="opacity:0.4;fill:none;stroke:url(#linearGradient1108);stroke-width:8;stroke-linecap:round;stroke-linejoin:round"/>
   <path d="m 181.56799,51.568005 a 24,24 0 0 0 -24,24 24,24 0 0 0 24,24 24,24 0 0 0 24,-24 24,24 0 0 0 -24,-24 z m -88.365226,28.37109 -47.63477,91.628915 h 95.269526 24.73047 l -36,-69 -12.32227,23.61914 z" transform="matrix(2.0393079,0,0,2.0393079,-29.55473,37.126102)" style="opacity:0.1;fill:url(#linearGradient1121);filter:url(#filter1117)"/>
   <path style="opacity:0.3;fill:url(#linearGradient1091);filter:url(#filter1101)" d="m 93.202764,81.939095 -47.63477,91.628915 h 95.269526 24.73047 l -36,-69 -12.32227,23.61914 z" transform="matrix(2.0393079,0,0,2.0393079,-29.55473,37.126102)"/>
   <path d="M 63.372438,387.0061 160.51497,200.14786 257.6575,387.0061 Z" style="fill:#f2f2f2"/>
   <path style="fill:#f9f9f9" d="M 161.25922,387.0061 234.67429,246.29386 308.08938,387.0061 Z"/>
   <circle cx="181.568" cy="77.568" r="24" transform="matrix(2.0393079,0,0,2.0393079,-29.55473,37.126102)" style="opacity:0.1;filter:url(#filter1001)"/>
   <circle style="fill:#f9f9f9" cx="340.718" cy="191.233" r="48.943"/>
   <path style="fill:#ffffff" d="m 340.71831,142.28915 a 48.943389,48.943389 0 0 0 -48.94339,48.94339 48.943389,48.943389 0 0 0 0.0438,0.85236 48.943389,48.943389 0 0 1 48.89955,-47.75645 48.943389,48.943389 0 0 1 48.89958,48.09102 48.943389,48.943389 0 0 0 0.0439,-1.18693 48.943389,48.943389 0 0 0 -48.94339,-48.94339 z M 160.5144,200.14653 63.372438,387.0061 h 1.059483 l 96.082479,-184.82026 49.03099,94.31403 25.1289,-48.1667 72.35163,138.67293 h 1.06346 l -73.41509,-140.71224 -25.1289,48.1667 z"/>
  </g>
 </g>
</svg>
